frontend/src/assets/icons/setting.svg

<?xml version="1.0" encoding="utf-8"?>

<!-- Uploaded to: SVG Repo, www.svgrepo.com, Generator: SVG Repo Mixer Tools -->
<svg width="current" height="current" viewBox="0 0 24 24" fill="none" xmlns="http://www.w3.org/2000/svg">
<g id="style=stroke">
<g id="setting">
<path id="vector (Stroke)" fill-rule="evenodd" clip-rule="evenodd" d="M12 9.75C10.7574 9.75 9.75 10.7574 9.75 12C9.75 13.2426 10.7574 14.25 12 14.25C13.2426 14.25 14.25 13.2426 14.25 12C14.25 10.7574 13.2426 9.75 12 9.75ZM8.25 12C8.25 9.92893 9.92893 8.25 12 8.25C14.0711 8.25 15.75 9.92893 15.75 12C15.75 14.0711 14.0711 15.75 12 15.75C9.92893 15.75 8.25 14.0711 8.25 12Z" fill="#000000"/>
<path id="vector (Stroke)_2" fill-rule="evenodd" clip-rule="evenodd" d="M9.60347 3.77018C9.3358 3.32423 8.77209 3.18551 8.35347 3.43457L8.34256 3.44105L6.61251 4.43096C6.06514 4.74375 5.8763 5.45289 6.1894 5.9948L5.54 6.37001L6.18888 5.99391C6.72395 6.91704 6.86779 7.92882 6.38982 8.75823C5.91192 9.58753 4.96479 9.97001 3.9 9.97001C3.26678 9.97001 2.75 10.4917 2.75 11.12V12.88C2.75 13.5084 3.26678 14.03 3.9 14.03C4.96479 14.03 5.91192 14.4125 6.38982 15.2418C6.86773 16.0711 6.72398 17.0827 6.18909 18.0058C5.87642 18.5476 6.06491 19.2561 6.6121 19.5688L8.35352 20.5654C8.77214 20.8144 9.33577 20.6758 9.60345 20.2299L9.71093 20.0442C10.2458 19.1214 11.052 18.4925 12.0087 18.4925C12.9662 18.4925 13.77 19.1219 14.3 20.0458C14.3002 20.0462 14.3004 20.0466 14.3007 20.047L14.4065 20.2298C14.6742 20.6758 15.2379 20.8145 15.6565 20.5655L15.6674 20.559L17.3975 19.5691C17.9434 19.2571 18.1351 18.5578 17.8198 18.0038C17.2858 17.0813 17.1426 16.0705 17.6202 15.2418C18.0981 14.4125 19.0452 14.03 20.11 14.03C20.7432 14.03 21.26 13.5084 21.26 12.88V11.12C21.26 10.4868 20.7384 9.97001 20.11 9.97001C19.0452 9.97001 18.0981 9.58753 17.6202 8.75824C17.1423 7.92899 17.286 6.91744 17.8208 5.99445C18.1336 5.45258 17.9451 4.74391 17.3979 4.43119L15.6565 3.43466C15.2379 3.1856 14.6742 3.32423 14.4065 3.77019L14.2991 3.95579C13.7642 4.8786 12.958 5.50751 12.0012 5.50751C11.0439 5.50751 10.2402 4.87825 9.71021 3.95455C9.70992 3.95403 9.70962 3.95352 9.70933 3.95301L9.60347 3.77018ZM7.59248 2.14193C8.75191 1.45656 10.2226 1.87704 10.8946 3.00654L10.8991 3.01421L11.0091 3.20423L11.0107 3.20701C11.3807 3.85247 11.7666 4.00751 12.0012 4.00751C12.237 4.00751 12.6259 3.85115 13.0009 3.20423C13.001 3.20412 13.0009 3.20434 13.0009 3.20423L13.1154 3.00651C13.7874 1.877 15.2581 1.45656 16.4175 2.14193L18.1421 3.12883C19.4147 3.85604 19.8463 5.48713 19.1194 6.74522L19.1189 6.74611C18.7439 7.39298 18.8028 7.8062 18.9198 8.00929C19.0369 8.21249 19.3648 8.47001 20.11 8.47001C21.5616 8.47001 22.76 9.65323 22.76 11.12V12.88C22.76 14.3317 21.5768 15.53 20.11 15.53C19.3648 15.53 19.0369 15.7875 18.9198 15.9907C18.8028 16.1938 18.7439 16.607 19.1189 17.2539L19.1212 17.2579C19.8444 18.5235 19.4157 20.1431 18.1425 20.871C18.1424 20.871 18.1426 20.8709 18.1425 20.871L16.4174 21.8581C15.258 22.5434 13.7874 22.123 13.1154 20.9935L13.1109 20.9858L13.0009 20.7958L12.9993 20.793C12.6293 20.1476 12.2434 19.9925 12.0087 19.9925C11.773 19.9925 11.3841 20.1489 11.0091 20.7958C11.009 20.7959 11.0091 20.7957 11.0091 20.7958L10.8946 20.9935C10.2226 22.123 8.75199 22.5434 7.59257 21.8581L5.8679 20.8712C5.86776 20.8711 5.86803 20.8713 5.8679 20.8712C4.59558 20.1439 4.16378 18.5128 4.8906 17.2548L4.89112 17.2539C5.26605 16.607 5.20721 16.1938 5.09018 15.9907C4.97308 15.7875 4.64521 15.53 3.9 15.53C2.43322 15.53 1.25 14.3317 1.25 12.88V11.12C1.25 9.66837 2.43322 8.47001 3.9 8.47001C4.64521 8.47001 4.97308 8.21249 5.09018 8.00929C5.20721 7.8062 5.26605 7.39298 4.89112 6.74611L4.8906 6.74522C4.16378 5.48726 4.59518 3.85639 5.86749 3.12906L7.59248 2.14193Z" fill="#000000"/>
</g>
</g>
</svg>

<svg width="current" height="current" viewBox="0 0 24 24" fill="none" xmlns="http://www.w3.org/2000/svg"><g fill-rule="evenodd" clip-rule="evenodd" fill="#000"><path d="M12 9.75a2.25 2.25 0 1 0 0 4.5 2.25 2.25 0 0 0 0-4.5zM8.25 12a3.75 3.75 0 1 1 7.5 0 3.75 3.75 0 0 1-7.5 0z"/><path d="M9.603 3.77a.919.919 0 0 0-1.25-.335l-.01.006-1.73.99a1.15 1.15 0 0 0-.424 1.564l-.649.375.649-.376c.535.923.679 1.935.2 2.764-.477.83-1.424 1.212-2.489 1.212-.633 0-1.15.522-1.15 1.15v1.76c0 .628.517 1.15 1.15 1.15 1.065 0 2.012.383 2.49 1.212.478.83.334 1.84-.2 2.764a1.149 1.149 0 0 0 .422 1.563l1.742.996a.919.919 0 0 0 1.25-.335l.107-.186c.535-.923 1.341-1.552 2.298-1.552.957 0 1.761.63 2.291 1.554v.001l.106.183a.92.92 0 0 0 1.25.335l.011-.006 1.73-.99a1.147 1.147 0 0 0 .423-1.565c-.534-.923-.677-1.934-.2-2.762.478-.83 1.425-1.212 2.49-1.212.633 0 1.15-.522 1.15-1.15v-1.76c0-.633-.522-1.15-1.15-1.15-1.065 0-2.012-.382-2.49-1.212-.478-.829-.334-1.84.2-2.764a1.15 1.15 0 0 0-.422-1.563l-1.742-.996a.919.919 0 0 0-1.25.335l-.107.186c-.535.923-1.341 1.552-2.298 1.552-.957 0-1.76-.63-2.29-1.553l-.002-.002-.106-.183zm-2.01-1.628c1.159-.685 2.63-.265 3.302.865l.004.007.11.19.002.003c.37.645.756.8.99.8.236 0 .625-.156 1-.803l.114-.197c.672-1.13 2.143-1.55 3.303-.865l1.724.987a2.65 2.65 0 0 1 .977 3.616v.001c-.375.647-.316 1.06-.2 1.263.118.203.446.461 1.191.461a2.656 2.656 0 0 1 2.65 2.65v1.76a2.656 2.656 0 0 1-2.65 2.65c-.745 0-1.073.258-1.19.46-.117.204-.176.617.199 1.264l.002.004a2.647 2.647 0 0 1-.979 3.613l-1.725.987c-1.159.685-2.63.265-3.302-.864l-.004-.008-.11-.19-.002-.003c-.37-.645-.756-.8-.99-.8-.236 0-.625.156-1 .803l-.114.198c-.672 1.129-2.143 1.55-3.302.864l-1.725-.987a2.65 2.65 0 0 1-.977-3.616v-.001c.375-.647.316-1.06.2-1.263-.118-.204-.446-.461-1.191-.461a2.656 2.656 0 0 1-2.65-2.65v-1.76A2.656 2.656 0 0 1 3.9 8.47c.745 0 1.073-.258 1.19-.46.117-.204.176-.617-.199-1.264a2.649 2.649 0 0 1 .976-3.617l1.725-.987z"/></g></svg>
